dist/img/catalog/discount_decor_3.svg

<svg width="165" height="164" viewBox="0 0 165 164" fill="none" xmlns="http://www.w3.org/2000/svg">
<path d="M16.96 87.2773C15.8584 78.5442 16.7764 70.1134 19.2733 62.3208C27.5716 36.4239 53.6049 17.3791 84.485 17.0432V0.114469C84.485 -0.826016 85.7701 -1.32985 86.6146 -0.758838L124.692 24.8358C125.316 25.2724 125.316 26.1457 124.692 26.5488L86.6514 52.1434C85.7701 52.7144 84.5217 52.2106 84.5217 51.2701V34.375C64.2165 34.6773 46.8854 46.1311 39.4316 62.3208C36.6043 68.434 35.1723 75.1853 35.5762 82.2725C36.127 92.0133 40.1293 100.981 46.4448 108.237C49.8229 112.099 49.0151 117.742 44.6456 120.664C40.4964 123.452 34.6949 122.68 31.5004 118.985C23.6794 110.05 18.4654 99.1677 16.96 87.2773ZM126.895 54.7634C133.247 61.9849 137.249 70.9867 137.763 80.7275C138.167 87.8483 136.698 94.5996 133.908 100.679C126.454 116.869 109.123 128.356 88.8177 128.625V111.73C88.8177 110.789 87.5326 110.286 86.6881 110.857L48.6112 136.451C47.987 136.888 47.987 137.761 48.6112 138.164L86.6514 163.759C87.5326 164.33 88.781 163.826 88.781 162.886V145.957C119.661 145.655 145.731 126.61 153.993 100.679C156.49 92.8866 157.371 84.4558 156.306 75.7227C154.837 63.8323 149.623 52.9496 141.802 44.015C138.571 40.3202 132.806 39.5477 128.657 42.3355C124.324 45.2577 123.517 50.9007 126.895 54.7634Z" fill="#EDF0F6"/>
</svg>

<svg width="165" height="164" viewBox="0 0 165 164" fill="none" xmlns="http://www.w3.org/2000/svg"><path d="M16.96 87.277a57.726 57.726 0 012.313-24.956c8.299-25.897 34.332-44.942 65.212-45.278V.114c0-.94 1.285-1.444 2.13-.873l38.077 25.595c.624.436.624 1.31 0 1.713l-38.04 25.594c-.882.571-2.13.068-2.13-.873V34.375c-20.306.302-37.637 11.756-45.09 27.946-2.828 6.113-4.26 12.864-3.856 19.951.551 9.741 4.553 18.709 10.869 25.965 3.378 3.862 2.57 9.505-1.8 12.427-4.149 2.788-9.95 2.016-13.145-1.679-7.82-8.935-13.035-19.817-14.54-31.708zm109.935-32.514c6.352 7.222 10.354 16.224 10.868 25.965.404 7.12-1.065 13.872-3.855 19.951-7.454 16.19-24.785 27.677-45.09 27.946V111.73c0-.941-1.285-1.444-2.13-.873l-38.077 25.594c-.624.437-.624 1.31 0 1.713l38.04 25.595c.882.571 2.13.067 2.13-.873v-16.929c30.88-.302 56.95-19.347 65.212-45.278 2.497-7.792 3.378-16.223 2.313-24.956-1.469-11.89-6.683-22.773-14.504-31.708-3.231-3.695-8.996-4.467-13.145-1.68-4.333 2.923-5.14 8.566-1.762 12.428z" fill="#EDF0F6"/></svg>
